svg/u26d4.svg

<svg viewBox="0 0 128 128" xmlns="http://www.w3.org/2000/svg">
  <g>
    <circle cx="64" cy="64" r="60" fill="#CC3333"/>
    <circle cx="60.1" cy="63.1" r="56.1" fill="#F44336"/>
    <path d="M24,29.7c4.5-7.1,14.1-13,24.1-14.8c2.5-0.4,5-0.6,7.1,0.2c1.6,0.6,2.9,2.1,2,3.8 c-0.7,1.4-2.6,2-4.1,2.5c-9.38,3.1-17.47,9.21-23,17.4c-2,3-5,11.3-8.7,9.2C17.5,45.7,18.3,38.5,24,29.7z" fill="#FF8A80"/>
    <path d="M104,72H24c-2.21,0-4-1.79-4-4v-8c0-2.21,1.79-4,4-4h80c2.21,0,4,1.79,4,4v8 C108,70.21,106.21,72,104,72z" fill="#FAFAFA"/>
  </g>
</svg>

<svg viewBox="0 0 128 128" xmlns="http://www.w3.org/2000/svg">
  <defs/>
  <path d="M124,64 A60 60 0 1 1 4,64 A60 60 0 1 1 124,64 Z" fill="#CC3333"/>
  <path d="M116.2,63.1 A56.1 56.1 0 1 1 4,63.1 A56.1 56.1 0 1 1 116.2,63.1 Z" fill="#F44336"/>
  <path d="M24,29.7 C28.5,22.6 38.1,16.7 48.1,14.9 C50.6,14.5 53.1,14.3 55.2,15.1 C56.8,15.7 58.1,17.2 57.2,18.9 C56.5,20.3 54.6,20.9 53.1,21.4 C43.72,24.5 35.63,30.61 30.1,38.8 C28.1,41.8 25.1,50.1 21.4,48 C17.5,45.7 18.3,38.5 24,29.7 Z" fill="#FF8A80"/>
  <path d="M104,72 L24,72 C21.79,72 20,70.21 20,68 L20,60 C20,57.79 21.79,56 24,56 L104,56 C106.21,56 108,57.79 108,60 L108,68 C108,70.21 106.21,72 104,72 Z" fill="#FAFAFA"/>
</svg>
